icons/vehicles/bicycles/bicycle_and_dollar.svg

<svg viewBox="0 0 15 15" xmlns="http://www.w3.org/2000/svg">
 <path d="m7.5 6c0.25 0 0.46 0.18 0.5 0.41v1.88l0.74 0.74c1.26 0.12 2.26 1.17 2.26 2.47 0 1.38-1.12 2.5-2.49 2.5-1.38 0-2.51-1.12-2.51-2.5 0-0.96 0.55-1.79 1.34-2.21l0.16-0.08-0.39-0.4-2.48 1.4c0.23 0.38 0.38 0.82 0.38 1.29 0 1.38-1.14 2.5-2.51 2.5-1.38 0-2.5-1.12-2.5-2.5 0-1.37 1.12-2.5 2.5-2.5 0.14 0 0.27 0.02 0.41 0.04l0.18 0.04-0.43-1.08h-0.23c-0.64 0.01-0.68-0.89-0.12-0.99l0.12-0.01h2.03c0.63-0.01 0.67 0.89 0.11 0.99l-0.11 0.01h-0.72l0.52 1.28 2.74-1.56v-0.72h-0.5c-0.63 0.01-0.67-0.89-0.11-0.99l0.11-0.01zm-5 4.01c-0.84 0-1.5 0.66-1.5 1.49 0 0.84 0.66 1.5 1.5 1.5 0.83 0 1.51-0.66 1.51-1.5 0-0.83-0.68-1.49-1.51-1.49zm6.01 0c-0.84 0-1.51 0.66-1.51 1.49 0 0.84 0.67 1.5 1.51 1.5 0.83 0 1.49-0.66 1.49-1.5 0-0.83-0.66-1.49-1.49-1.49zm4.49-10v1h1c0.5 0 1 0.5 1 1h-2v1h0.5c0.83 0 1.5 0.67 1.5 1.5s-0.67 1.5-1.5 1.5h-0.5v1h-1v-1h-1c-0.5 0-1-0.5-1-1h2v-1h-0.5c-0.83 0-1.5-0.67-1.5-1.5s0.67-1.5 1.5-1.5h0.5v-1zm0 5h0.5c0.28 0 0.5-0.22 0.5-0.5s-0.22-0.5-0.5-0.5h-0.5zm-1-2v-1h-0.5c-0.28 0-0.5 0.22-0.5 0.5s0.22 0.5 0.5 0.5z"/>
</svg>

<svg xmlns="http://www.w3.org/2000/svg" viewBox="0 0 15 15">
  <path d="M7.5 6C7.75 6 7.96 6.18 8 6.41L8 8.29L8.74 9.03C10 9.15 11 10.2 11 11.5C11 12.88 9.88 14 8.51 14C7.13 14 6 12.88 6 11.5C6 10.54 6.55 9.71 7.34 9.29L7.5 9.21L7.11 8.81L4.63 10.21C4.86 10.59 5.01 11.03 5.01 11.5C5.01 12.88 3.87 14 2.5 14C1.12 14 0 12.88 0 11.5C0 10.13 1.12 9 2.5 9C2.64 9 2.77 9.02 2.91 9.04L3.09 9.08L2.66 8L2.43 8C1.79 8.01 1.75 7.11 2.31 7.01L2.43 7L4.46 7C5.09 6.99 5.13 7.89 4.57 7.99L4.46 8L3.74 8L4.26 9.28L7 7.72L7 7L6.5 7C5.87 7.01 5.83 6.11 6.39 6.01L6.5 6L7.5 6ZM2.5 10.01C1.66 10.01 1 10.67 1 11.5C1 12.34 1.66 13 2.5 13C3.33 13 4.01 12.34 4.01 11.5C4.01 10.67 3.33 10.01 2.5 10.01ZM8.51 10.01C7.67 10.01 7 10.67 7 11.5C7 12.34 7.67 13 8.51 13C9.34 13 10 12.34 10 11.5C10 10.67 9.34 10.01 8.51 10.01ZM13 1L13 2L13.5 2C14.28 2 14.92 2.59 14.99 3.36L15 3.5L14 3.5C14 3.22 13.78 3 13.5 3L13 3L13 4L13.5 4C14.33 4 15 4.67 15 5.5C15 6.33 14.33 7 13.5 7L13 7L13 8L12 8L12 7L11.5 7C10.72 7 10.08 6.41 10.01 5.64L10 5.5L11 5.5C11 5.78 11.22 6 11.5 6L12 6L12 5L11.5 5C10.67 5 10 4.33 10 3.5C10 2.67 10.67 2 11.5 2L12 2L12 1L13 1ZM13 6L13.5 6C13.78 6 14 5.78 14 5.5C14 5.22 13.78 5 13.5 5L13 5L13 6ZM12 4L12 3L11.5 3C11.22 3 11 3.22 11 3.5C11 3.78 11.22 4 11.5 4L12 4Z"/>
</svg>
